assets/shopping-color/ShoppingColor13.svg

<svg xmlns="http://www.w3.org/2000/svg" data-name="Layer 3" viewBox="0 0 128 128"><rect width="52.096" height="83.672" x="37.952" y="22.164" fill="#f0e9e0" rx="7.653" ry="7.653"/><path fill="#f7f7f7" d="M44.4 98.183V29.817a7.676 7.676 0 017.653-7.653h-6.45a7.676 7.676 0 00-7.653 7.653v68.366a7.676 7.676 0 007.653 7.653h6.45a7.676 7.676 0 01-7.653-7.653z"/><path fill="#01a9bb" d="M39.483 35.931h49.035v52.192H39.483z"/><path fill="#27bdc1" d="M39.483 35.931h6.45v52.192h-6.45z"/><circle cx="64" cy="62.108" r="11.48" fill="#f8b72b"/><path fill="#f7c869" d="M56.248 62.108a11.472 11.472 0 019.615-11.315 11.48 11.48 0 100 22.631 11.472 11.472 0 01-9.615-11.316z"/><path fill="#231f20" d="M82.395 20.633h-36.79a9.194 9.194 0 00-9.184 9.184v68.366a9.194 9.194 0 009.184 9.184h36.79a9.194 9.194 0 009.184-9.184V29.817a9.194 9.194 0 00-9.184-9.184zm-42.912 15.3h49.034v52.19H39.483zm6.123-12.236h36.79a6.129 6.129 0 016.123 6.123v3.05H39.483v-3.053a6.129 6.129 0 016.122-6.122zm36.79 80.611H45.605a6.129 6.129 0 01-6.123-6.123v-7h49.035v7a6.129 6.129 0 01-6.122 6.12z"/><circle cx="64" cy="97.316" r="4.965" fill="#231f20"/><path fill="#231f20" d="M64 49.1a13.011 13.011 0 1013.01 13.011A13.025 13.025 0 0064 49.1zm0 22.96a9.949 9.949 0 119.949-9.949A9.96 9.96 0 0164 72.057z"/><path fill="#231f20" d="M67.914 57.5l-6.662 5.8-2.232-3.089A1.531 1.531 0 0056.537 62l3.214 4.454a1.53 1.53 0 001.067.625 1.4 1.4 0 00.175.01A1.531 1.531 0 0062 66.715l7.927-6.906a1.53 1.53 0 10-2.01-2.308z"/></svg>

<svg id="Layer_3" data-name="Layer 3" xmlns="http://www.w3.org/2000/svg" viewBox="0 0 128 128"><title>Artboard 109</title><rect x="37.952" y="22.164" width="52.096" height="83.672" rx="7.653" ry="7.653" style="fill:#f0e9e0"/><path d="M44.4,98.183V29.817a7.676,7.676,0,0,1,7.653-7.653h-6.45a7.676,7.676,0,0,0-7.653,7.653V98.183a7.676,7.676,0,0,0,7.653,7.653h6.45A7.676,7.676,0,0,1,44.4,98.183Z" style="fill:#f7f7f7"/><rect x="39.483" y="35.931" width="49.035" height="52.192" style="fill:#01a9bb"/><rect x="39.483" y="35.931" width="6.45" height="52.192" style="fill:#27bdc1"/><circle cx="64" cy="62.108" r="11.48" style="fill:#f8b72b"/><path d="M56.248,62.108a11.472,11.472,0,0,1,9.615-11.315,11.48,11.48,0,1,0,0,22.631A11.472,11.472,0,0,1,56.248,62.108Z" style="fill:#f7c869"/><path d="M82.395,20.633H45.605a9.194,9.194,0,0,0-9.184,9.184V98.183a9.194,9.194,0,0,0,9.184,9.184h36.79a9.194,9.194,0,0,0,9.184-9.184V29.817A9.194,9.194,0,0,0,82.395,20.633Zm-42.912,15.3H88.517V88.123H39.483Zm6.123-12.236h36.79a6.129,6.129,0,0,1,6.123,6.123V32.87H39.483V29.817A6.129,6.129,0,0,1,45.605,23.695Zm36.79,80.611H45.605a6.129,6.129,0,0,1-6.123-6.123v-7H88.517v7A6.129,6.129,0,0,1,82.395,104.305Z" style="fill:#231f20"/><circle cx="64" cy="97.316" r="4.965" style="fill:#231f20"/><path d="M64,49.1a13.011,13.011,0,1,0,13.01,13.011A13.025,13.025,0,0,0,64,49.1Zm0,22.96a9.949,9.949,0,1,1,9.949-9.949A9.96,9.96,0,0,1,64,72.057Z" style="fill:#231f20"/><path d="M67.914,57.5l-6.662,5.8L59.02,60.211A1.531,1.531,0,0,0,56.537,62l3.214,4.454a1.53,1.53,0,0,0,1.067.625,1.4,1.4,0,0,0,.175.01A1.531,1.531,0,0,0,62,66.715l7.927-6.906a1.53,1.53,0,1,0-2.01-2.308Z" style="fill:#231f20"/></svg>
